view/frontend/web/svg/flags/gd.svg

<svg width="24" height="24" viewbox="0 0 20 15" viewBox="0 0 20 15" fill="none" xmlns="http://www.w3.org/2000/svg">
<g clip-path="url(#clip0_270_60947)">
<rect width="20" height="15" fill="white"/>
<path fill-rule="evenodd" clip-rule="evenodd" d="M0 0H20V13.75C20 14.4404 19.4404 15 18.75 15H1.25C0.559644 15 0 14.4404 0 13.75V0Z" fill="#C51918"/>
<path fill-rule="evenodd" clip-rule="evenodd" d="M3.75 3.75H16.25V11.25H3.75V3.75Z" fill="#FECA00"/>
<mask id="mask0_270_60947" style="mask-type:luminance" maskUnits="userSpaceOnUse" x="3" y="3" width="14" height="9">
<path fill-rule="evenodd" clip-rule="evenodd" d="M3.75 3.75H16.25V11.25H3.75V3.75Z" fill="white"/>
</mask>
<g mask="url(#mask0_270_60947)">
<path fill-rule="evenodd" clip-rule="evenodd" d="M3.75 3.75L10 7.5L3.75 11.25V3.75Z" fill="#23875F"/>
<path fill-rule="evenodd" clip-rule="evenodd" d="M16.25 3.75L10 7.5L16.25 11.25V3.75Z" fill="#23875F"/>
<mask id="mask1_270_60947" style="mask-type:luminance" maskUnits="userSpaceOnUse" x="10" y="3" width="7" height="9">
<path fill-rule="evenodd" clip-rule="evenodd" d="M16.25 3.75L10 7.5L16.25 11.25V3.75Z" fill="white"/>
</mask>
<g mask="url(#mask1_270_60947)">
</g>
<path fill-rule="evenodd" clip-rule="evenodd" d="M10 10C11.3807 10 12.5 8.88071 12.5 7.5C12.5 6.11929 11.3807 5 10 5C8.61929 5 7.5 6.11929 7.5 7.5C7.5 8.88071 8.61929 10 10 10Z" fill="#C51918"/>
<path fill-rule="evenodd" clip-rule="evenodd" d="M9.95591 8.32079L8.66158 9.21856L9.07517 7.6809L8.125 6.69863L9.41158 6.64552L9.95591 5.125L10.5002 6.64552H11.7846L10.8367 7.6809L11.3114 9.12781L9.95591 8.32079Z" fill="#FECA00"/>
</g>
<path fill-rule="evenodd" clip-rule="evenodd" d="M5.48545 2.77628L6.1928 2.33765L6.93359 2.73193L6.67413 2.02502L7.19221 1.51916H6.49028L6.1928 0.776276L5.89533 1.51916L5.19221 1.54511L5.71148 2.02502L5.48545 2.77628ZM9.23545 2.77628L9.9428 2.33765L10.6836 2.73193L10.4241 2.02502L10.9422 1.51916H10.2403L9.9428 0.776276L9.64533 1.51916L8.94221 1.54511L9.46148 2.02502L9.23545 2.77628ZM13.6928 2.33765L12.9855 2.77628L13.2115 2.02502L12.6922 1.54511L13.3953 1.51916L13.6928 0.776276L13.9903 1.51916H14.6922L14.1741 2.02502L14.4336 2.73193L13.6928 2.33765ZM5.48485 13.8545L6.19221 13.4159L6.93299 13.8101L6.67353 13.1032L7.19161 12.5974H6.48968L6.19221 11.8545L5.89473 12.5974L5.19161 12.6233L5.71088 13.1032L5.48485 13.8545ZM9.94221 13.4159L9.23485 13.8545L9.46088 13.1032L8.94161 12.6233L9.64473 12.5974L9.94221 11.8545L10.2397 12.5974H10.9416L10.4235 13.1032L10.683 13.8101L9.94221 13.4159ZM12.9849 13.8545L13.6922 13.4159L14.433 13.8101L14.1735 13.1032L14.6916 12.5974H13.9897L13.6922 11.8545L13.3947 12.5974L12.6916 12.6233L13.2109 13.1032L12.9849 13.8545Z" fill="#FECA00"/>
<path fill-rule="evenodd" clip-rule="evenodd" d="M5.3967 7.98251C5.3967 7.98251 5.7333 8.28217 5.91663 8.38419C5.97984 8.14461 5.8388 7.60184 5.8388 7.60184C5.79923 7.47209 5.36517 7.23947 5.36517 7.23947C5.36517 7.23947 5.24325 7.64907 5.3967 7.98251Z" fill="#C51918"/>
<path fill-rule="evenodd" clip-rule="evenodd" d="M5.74734 8.70637C5.74734 8.70637 4.88282 8.30257 4.79497 7.73145C4.70712 7.16033 4.89343 6.24985 4.89343 6.24985C4.89343 6.24985 6.29731 6.56933 6.39282 7.25383C6.48833 7.93833 6.17125 8.36835 6.17125 8.36835C6.17125 8.36835 5.84653 7.53392 5.5401 7.44137C5.5401 7.44137 5.5401 8.26834 5.74734 8.70637Z" fill="#FECA00"/>
</g>
<defs>
<clipPath id="clip0_270_60947">
<rect width="20" height="15" fill="white"/>
</clipPath>
</defs>
</svg>

<svg width="24" height="24" viewbox="0 0 20 15" fill="none" xmlns="http://www.w3.org/2000/svg">
  <mask id="a" maskUnits="userSpaceOnUse" x="0" y="0" width="20" height="15">
    <path fill="#fff" d="M0 0h20v15H0z"/>
  </mask>
  <g mask="url(#a)">
    <path fill-rule="evenodd" clip-rule="evenodd" d="M0 0h20v13.75c0 .69-.56 1.25-1.25 1.25H1.25C.56 15 0 14.44 0 13.75V0z" fill="#C51918"/>
    <path fill-rule="evenodd" clip-rule="evenodd" d="M3.75 3.75h12.5v7.5H3.75v-7.5z" fill="#FECA00"/>
    <mask id="b" maskUnits="userSpaceOnUse" x="3" y="3" width="14" height="9">
      <path fill-rule="evenodd" clip-rule="evenodd" d="M3.75 3.75h12.5v7.5H3.75v-7.5z" fill="#fff"/>
    </mask>
    <g mask="url(#b)" fill-rule="evenodd" clip-rule="evenodd">
      <path d="M3.75 3.75L10 7.5l-6.25 3.75v-7.5zm12.5 0L10 7.5l6.25 3.75v-7.5z" fill="#23875F"/>
      <path d="M10 10a2.5 2.5 0 100-5 2.5 2.5 0 000 5z" fill="#C51918"/>
      <path d="M9.956 8.32l-1.294.899.413-1.538-.95-.982 1.287-.053.544-1.521.544 1.52h1.285l-.948 1.036.474 1.447-1.355-.807z" fill="#FECA00"/>
    </g>
    <path fill-rule="evenodd" clip-rule="evenodd" d="M5.485 2.776l.708-.438.74.394-.259-.707.518-.506H6.49L6.193.776l-.298.743-.703.026.52.48-.227.751zm3.75 0l.708-.438.74.394-.259-.707.518-.506h-.702L9.943.776l-.298.743-.703.026.52.48-.227.751zm4.458-.438l-.707.438.225-.751-.519-.48.703-.026.298-.743.297.743h.702l-.518.506.26.707-.741-.394zM5.485 13.855l.707-.44.741.395-.26-.707.519-.506H6.49l-.298-.742-.297.742-.703.026.519.48-.226.752zm4.457-.44l-.707.44.226-.752-.52-.48.704-.026.297-.742.298.742h.702l-.518.506.259.707-.74-.394zm3.043.44l.707-.44.741.395-.26-.707.519-.506h-.702l-.298-.742-.297.742-.703.026.519.48-.226.752z" fill="#FECA00"/>
    <path fill-rule="evenodd" clip-rule="evenodd" d="M5.397 7.983s.336.3.52.401c.063-.24-.078-.782-.078-.782-.04-.13-.474-.363-.474-.363s-.122.41.032.744z" fill="#C51918"/>
    <path fill-rule="evenodd" clip-rule="evenodd" d="M5.747 8.706s-.864-.403-.952-.975c-.088-.57.098-1.481.098-1.481s1.404.32 1.5 1.004c.095.684-.222 1.114-.222 1.114s-.324-.834-.63-.927c0 0 0 .827.206 1.265z" fill="#FECA00"/>
  </g>
</svg>
